src/lib/packages/icons/src/assets/line/chat-text-minus.svg

<svg width="24" height="24" viewBox="0 0 24 24" fill="none" xmlns="http://www.w3.org/2000/svg">
<path d="M13.7451 20.847C13.7951 21.258 13.5031 21.632 13.0911 21.682C11.3711 21.89 9.52804 21.592 7.92604 20.847C7.67804 20.729 7.36904 20.72 7.05104 20.822L4.56203 21.658C4.37803 21.719 4.1909 21.749 4.0049 21.749C3.5479 21.749 3.10408 21.569 2.76809 21.233C2.29408 20.76 2.13108 20.073 2.34108 19.441L3.1819 16.94C3.2799 16.633 3.27102 16.325 3.15602 16.082C2.56402 14.809 2.25392 13.399 2.25392 11.999C2.25392 6.62402 6.62697 2.25 12.002 2.25C17.378 2.25 21.751 6.62302 21.751 11.999C21.751 12.413 21.415 12.749 21.001 12.749C20.587 12.749 20.251 12.413 20.251 11.999C20.251 7.45102 16.551 3.75 12.002 3.75C7.45397 3.75 3.75392 7.45002 3.75392 11.999C3.75392 13.182 4.01693 14.373 4.51393 15.443C4.78993 16.024 4.82591 16.723 4.60891 17.406L3.76491 19.917C3.72291 20.042 3.78712 20.131 3.82912 20.173C3.87112 20.215 3.96096 20.279 4.08596 20.237L6.584 19.398C7.278 19.177 7.97896 19.211 8.56496 19.492C9.90696 20.115 11.4611 20.37 12.9121 20.194C13.3101 20.145 13.6961 20.436 13.7451 20.847ZM21 17.25H16C15.586 17.25 15.25 17.586 15.25 18C15.25 18.414 15.586 18.75 16 18.75H21C21.414 18.75 21.75 18.414 21.75 18C21.75 17.586 21.414 17.25 21 17.25ZM8.00002 9.25C7.58602 9.25 7.25002 9.586 7.25002 10C7.25002 10.414 7.58602 10.75 8.00002 10.75H16C16.414 10.75 16.75 10.414 16.75 10C16.75 9.586 16.414 9.25 16 9.25H8.00002ZM13 13.25H8.00002C7.58602 13.25 7.25002 13.586 7.25002 14C7.25002 14.414 7.58602 14.75 8.00002 14.75H13C13.414 14.75 13.75 14.414 13.75 14C13.75 13.586 13.414 13.25 13 13.25Z" fill="currentColor"/>
</svg>

<svg xmlns="http://www.w3.org/2000/svg" width="24" height="24" fill="none"><path fill="currentColor" d="M13.745 20.847a.75.75 0 0 1-.654.835 9.689 9.689 0 0 1-5.165-.835c-.248-.118-.557-.127-.875-.025l-2.489.836a1.745 1.745 0 0 1-1.794-.425 1.743 1.743 0 0 1-.427-1.792l.84-2.501c.099-.307.09-.615-.025-.858a9.74 9.74 0 0 1-.902-4.083c0-5.375 4.373-9.749 9.748-9.749 5.376 0 9.749 4.373 9.749 9.749a.75.75 0 0 1-1.5 0c0-4.548-3.7-8.249-8.249-8.249-4.548 0-8.248 3.7-8.248 8.249a8.23 8.23 0 0 0 .76 3.444c.276.581.312 1.28.095 1.963l-.844 2.511a.242.242 0 0 0 .064.256.243.243 0 0 0 .257.064l2.498-.839c.694-.221 1.395-.187 1.981.094a8.169 8.169 0 0 0 4.347.702.755.755 0 0 1 .833.653ZM21 17.25h-5a.75.75 0 0 0 0 1.5h5a.75.75 0 0 0 0-1.5Zm-13-8a.75.75 0 0 0 0 1.5h8a.75.75 0 0 0 0-1.5H8Zm5 4H8a.75.75 0 0 0 0 1.5h5a.75.75 0 0 0 0-1.5Z"/></svg>
